X:1
T:Hungry Hash House
M:4/4
L:1/4
K:G
 z2 D D| B B A G| B2 B/2 B3/2| A/2 G3/2 G E| G z G/2 G3/2| B B B B|\
 d/2 d3/2 B/2 G3/2| A3 z| z2 d/2 d3/2| B B A G| B2 B/2 B3/2| A/2 G3/2 G E|\
 G z G3/2 A/2| B d B G| A3/2 D/2 E F| G3 z| z2 G G| c c c/2 c3/2| c2 c3/2 c/2|\
 B/2 B3/2 B A| G3 G| A A A/2 A3/2| e/2 e3/2 d/2 ^c3/2| d3 z| z2 d d|\
 e/2d/2 d/2d/2 d/2 d3/2| B2 B/2 B3/2| A G G E| G2 G A| B d B G| A D E F|\
 G3 z| z4|
